X:1
T:Title
%%score { ( 1 4 ) | ( 2 3 ) }
L:1/8
Q:1/4=100
M:6/8
K:Ab
V:1 treble nm="Grand Piano"
V:4 treble 
V:2 bass 
V:3 bass 
V:1
 [A,CE]3 .[A,CE]2 [CG] | [CA][DB][Ec] [A,DF]3 | [DFB]3 [CEA]2 [B,EG] | [CEA]6 | %4
w: Robert~Lowry * *||||
 [A,CE]3 .[A,CE]2 [CG] | [CA][DB][Ec] [DF]3 | [=DB]3 [FA]2 [DF] | E6 | B3 dcB | %9
w: |||||
 [DB][CA][DF] [CE]3 | [Ec]3 [Fd][Ec][EB] | z3 B3 | z3 .A3 | BA[A,DF] [DFB]3 | A3 GA[DEB] | %15
w: ||||||
 [CEA]6 |] %16
w: |
V:2
 A,,3 z F[A,,A,] | [A,,A,]2 [A,,A,] D,3 | B,,3 E,2 E, | A,,6 | A,,3 z F[A,,A,] | %5
 [A,,A,]2 [A,,A,] [D,B,]3 | [B,,B,]3 [B,,B,]2 [B,,A,] | [E,G,]6 | z3 .B,3 | %9
 [A,,A,]2 [A,,A,] [A,,A,]3 | [A,,A,]3 [A,,A,]2 [D,G,] | [C,A,][B,,E,][A,,A,] .[E,G,E]3 | %12
 [A,,A,]3 [C,A,][B,,G,][A,,A,] | [D,F,D]2 D, B,,3 | z3 .B,3 | A,,6 |] %16
V:3
 z3 .A,,3 | x6 | x6 | x6 | z3 .A,,3 | x6 | x6 | x6 | [E,G,E]3 [E,E]-[E,A,E][E,G,D] | x6 | x6 | x6 | %12
 x6 | x6 | [E,CE]3 [E,E]-[E,CE]E, | x6 |] %16
V:4
 x6 | x6 | x6 | x6 | x6 | x6 | x6 | x6 | x6 | x6 | x6 | [EA][DG][CA] z2 D | [CA]3 E-[EB][Ec] | x6 | %14
 x6 | x6 |] %16

